X: 3435
T: Husby brudmarsch
R: marsch 
S: efter Anders Hansson, Husby 
Z: .andersson
M: 2/4
L: 1/8
K: G

B/c/ |: d>c BA | GF (D/F/)A/B/ | c>B AG | F3D | 
G>F (G/A/)B/c/ | e>d (c/B/)A/G/ | B>A AA | A3 B/c/ :| 
|: d>c (B/G/)B/d/ | g3f | e>d (c/B/)c/e/ | d3B | 
cA (F/A/)c/e/ | d2FA | D>G GG |1 G3B/c/ :|2 G4 |]

(:musicend:)
(:music:) 

